svgs/sharp-light/hexagon-vertical-nft-slanted.svg

<svg xmlns="http://www.w3.org/2000/svg" viewBox="0 0 448 512"><!--! Font Awesome Pro 6.6.0 by @fontawesome - https://fontawesome.com License - https://fontawesome.com/license (Commercial License) Copyright 2024 Fonticons, Inc. --><path d="M416 365.4l0-218.9L224 36.9 32 146.6l0 218.9L224 475.1 416 365.4zM0 128L224 0 448 128l0 256L224 512 0 384 0 128zM192 92l31.8-18.2L272 101.4l0 36.9-48-27.5L224 240l32 0 16 0 0 32-16 0-32 0 0 160 0 6.3L192 420l0-164 0-164zM320 383.4l0-217.7L296 152l0-36.9 47.9 27.4s0 0 0 0L384 165.4l0 36.8L352 184l0 181.1-32 18.3zM160 384l0 17.7L127.2 383 96 266.1 96 360l0 5.1L64 346.9l0-181.7 33.1-18.9L128 261.9l0-133.3 32-18.3 0 1.7 0 269.9 0 2.1z"/></svg>

<svg xmlns="http://www.w3.org/2000/svg" viewBox="0 0 448 512"><!--! Font Awesome Pro 6.4.2 by @fontawesome - https://fontawesome.com License - https://fontawesome.com/license (Commercial License) Copyright 2023 Fonticons, Inc. --><path d="M416 365.4V146.6L224 36.9 32 146.6V365.4L224 475.1 416 365.4zM0 128L224 0 448 128V384L224 512 0 384V128zM192 92l31.8-18.2L272 101.4v36.9l-48-27.5V240h32 16v32H256 224V432v6.3L192 420V256 92zM320 383.4V165.8L296 152V115.1l47.9 27.4 0 0L384 165.4v36.8L352 184V365.1l-32 18.3zM160 384v17.7L127.2 383 96 266.1V360v5.1L64 346.9V165.1l33.1-18.9L128 261.9V128.6l32-18.3V112 381.9 384z"/></svg>
